modules/hawcons-stroke/icons/icon-139-package.svg

<svg width="32" height="32" xmlns="http://www.w3.org/2000/svg"><path d="M19 13h9v14H5V13h9v7h5v-7zm-4-8H9.6l-4.375 7H14l1-7zm3 0h5.4l4.375 7H19l-1-7zM4 12.5V12l5-8h15l5 8v16H4V12.5zM16 5l-1 7h3l-1-7h-1zm-1 8v6h3v-6h-3zm-9 8v1h7v-1H6zm0 4v1h7v-1H6zm0-2v1h5v-1H6z" fill="#929292" fill-rule="evenodd"/></svg>

<?xml version="1.0" encoding="UTF-8" standalone="no"?>
<svg width="32px" height="32px" viewBox="0 0 32 32" version="1.1" xmlns="http://www.w3.org/2000/svg" xmlns:xlink="http://www.w3.org/1999/xlink" xmlns:sketch="http://www.bohemiancoding.com/sketch/ns">
    <!-- Generator: Sketch 3.0.3 (7891) - http://www.bohemiancoding.com/sketch -->
    <title>icon 139 package</title>
    <desc>Created with Sketch.</desc>
    <defs></defs>
    <g id="Page-1" stroke="none" stroke-width="1" fill="none" fill-rule="evenodd" sketch:type="MSPage">
        <g id="icon-139-package" sketch:type="MSArtboardGroup" fill="#929292">
            <path d="M19,13 L28,13 L28,27 L5,27 L5,13 L14,13 L14,20 L19,20 L19,13 L19,13 Z M15,5 L9.59997559,5 L5.22497559,12 L14,12 L15,5 L15,5 Z M18,5 L23.4000244,5 L27.7750244,12 L19,12 L18,5 L18,5 L18,5 Z M4,12.5 L4,12 L9,4 L24,4 L29,12 L29,12.5 L29,28 L4,28 L4,12.5 L4,12.5 Z M16,5 L15,12 L18,12 L17,5 L16,5 L16,5 Z M15,13 L15,19 L18,19 L18,13 L15,13 L15,13 Z M6,21 L6,22 L13,22 L13,21 L6,21 L6,21 Z M6,25 L6,26 L13,26 L13,25 L6,25 L6,25 Z M6,23 L6,24 L11,24 L11,23 L6,23 L6,23 Z" id="package" sketch:type="MSShapeGroup"></path>
        </g>
    </g>
</svg>
